X:94
T:Reel 94
M:4/4
K:Cmaj
L:1/8
GF|EDEF G2FD|G2FD ECC2|EDEF G2GF|DEFD ECCD|EDEF G2GA|BGFD ECC2|ecdB cBGE|GcBd c2|cd|e2dc B2dB|cedc BGG2|e2dc d2dc|Gccd c2GF|Gcdc GBdc|BGFD B,3D|Gcdc BGFD|CEDB, C2|
